X:3671
T:Lillibulero
O:England
M:6/8
Q:320
R:Jig
K:G
|: "G" G>AG B2 B |"D" A>BA c3  |"G" BdG "C"c2 B |"D" AGF"G"G3::"G"g2 f g2 d | de=f "C"e2 d |"G" def gfe|"G"dcB"D"A3 |"C" edc "G" Bcd  |"C" edc "G" Bcd  |"C" edB "Am"c2 B |"D" AGF "G"G3 :|


